icons/actions/system-monitoring-center-info-about-symbolic.svg

<?xml version="1.0" encoding="UTF-8" standalone="no"?>
<svg
   xmlns:dc="http://purl.org/dc/elements/1.1/"
   xmlns:cc="http://creativecommons.org/ns#"
   xmlns:rdf="http://www.w3.org/1999/02/22-rdf-syntax-ns#"
   xmlns:svg="http://www.w3.org/2000/svg"
   xmlns="http://www.w3.org/2000/svg"
   xmlns:sodipodi="http://sodipodi.sourceforge.net/DTD/sodipodi-0.dtd"
   xmlns:inkscape="http://www.inkscape.org/namespaces/inkscape"
   width="135.46667mm"
   height="135.46667mm"
   viewBox="0 0 135.46667 135.46667"
   version="1.1"
   id="svg8"
   inkscape:version="1.0.2 (e86c870879, 2021-01-15)"
   sodipodi:docname="smart-system-monitor-info-about-symbolic.svg">
  <defs
     id="defs2" />
  <sodipodi:namedview
     id="base"
     pagecolor="#ffffff"
     bordercolor="#666666"
     borderopacity="1.0"
     inkscape:pageopacity="0.0"
     inkscape:pageshadow="2"
     inkscape:zoom="0.62597653"
     inkscape:cx="41.461876"
     inkscape:cy="261.18108"
     inkscape:document-units="mm"
     inkscape:current-layer="layer1"
     inkscape:document-rotation="0"
     showgrid="false"
     inkscape:window-width="1366"
     inkscape:window-height="696"
     inkscape:window-x="0"
     inkscape:window-y="0"
     inkscape:window-maximized="1" />
  <metadata
     id="metadata5">
    <rdf:RDF>
      <cc:Work
         rdf:about="">
        <dc:format>image/svg+xml</dc:format>
        <dc:type
           rdf:resource="http://purl.org/dc/dcmitype/StillImage" />
        <dc:title />
      </cc:Work>
    </rdf:RDF>
  </metadata>
  <g
     inkscape:label="Katman 1"
     inkscape:groupmode="layer"
     id="layer1"
     transform="translate(-37.266664,-80.766664)">
    <g
       id="path2740"
       transform="matrix(0.26458333,0,0,0.26458333,37.266664,80.766664)"
       style="opacity:1">
      <path
         style="color:#000000;font-style:normal;font-variant:normal;font-weight:normal;font-stretch:normal;font-size:medium;line-height:normal;font-family:sans-serif;font-variant-ligatures:normal;font-variant-position:normal;font-variant-caps:normal;font-variant-numeric:normal;font-variant-alternates:normal;font-variant-east-asian:normal;font-feature-settings:normal;font-variation-settings:normal;text-indent:0;text-align:start;text-decoration:none;text-decoration-line:none;text-decoration-style:solid;text-decoration-color:#000000;letter-spacing:normal;word-spacing:normal;text-transform:none;writing-mode:lr-tb;direction:ltr;text-orientation:mixed;dominant-baseline:auto;baseline-shift:baseline;text-anchor:start;white-space:normal;shape-padding:0;shape-margin:0;inline-size:0;clip-rule:nonzero;display:inline;overflow:visible;visibility:visible;isolation:auto;mix-blend-mode:normal;color-interpolation:sRGB;color-interpolation-filters:linearRGB;solid-color:#000000;solid-opacity:1;vector-effect:none;fill:#000000;fill-opacity:1;fill-rule:nonzero;stroke:none;stroke-width:9.04396;stroke-linecap:butt;stroke-linejoin:round;stroke-miterlimit:20.1;stroke-dasharray:none;stroke-dashoffset:0;stroke-opacity:1;color-rendering:auto;image-rendering:auto;shape-rendering:auto;text-rendering:auto;enable-background:accumulate;stop-color:#000000;stop-opacity:1"
         d="M 255.69531,4.5214844 C 116.92645,4.6893485 4.5211149,117.23104 4.5214844,256 4.5212138,394.88786 117.11214,507.47879 256,507.47852 394.88786,507.47879 507.47879,394.88786 507.47852,256 507.47879,117.11214 394.88786,4.5212138 256,4.5214844 c 0,0 -0.30469,0 -0.30469,0 z M 256,43.185547 c 27.59976,-3.8e-5 49.97398,22.939942 49.97461,51.238281 C 305.97503,122.72293 283.6005,145.6641 256,145.66406 228.3995,145.6641 206.02497,122.72293 206.02539,94.423828 206.02602,66.125489 228.40024,43.185509 256,43.185547 Z m -2.48438,144.664063 c 22.61507,0 40.82032,7.23942 40.82032,16.23242 v 248.5 c 0,8.993 -18.20525,16.23242 -40.82032,16.23242 -22.61506,0 -40.82226,-7.23942 -40.82226,-16.23242 v -248.5 c 0,-8.993 18.2072,-16.23242 40.82226,-16.23242 z"
         id="path28846" />
      <path
         style="color:#000000;font-style:normal;font-variant:normal;font-weight:normal;font-stretch:normal;font-size:medium;line-height:normal;font-family:sans-serif;font-variant-ligatures:normal;font-variant-position:normal;font-variant-caps:normal;font-variant-numeric:normal;font-variant-alternates:normal;font-variant-east-asian:normal;font-feature-settings:normal;font-variation-settings:normal;text-indent:0;text-align:start;text-decoration:none;text-decoration-line:none;text-decoration-style:solid;text-decoration-color:#000000;letter-spacing:normal;word-spacing:normal;text-transform:none;writing-mode:lr-tb;direction:ltr;text-orientation:mixed;dominant-baseline:auto;baseline-shift:baseline;text-anchor:start;white-space:normal;shape-padding:0;shape-margin:0;inline-size:0;clip-rule:nonzero;display:inline;overflow:visible;visibility:visible;isolation:auto;mix-blend-mode:normal;color-interpolation:sRGB;color-interpolation-filters:linearRGB;solid-color:#000000;solid-opacity:1;vector-effect:none;fill:#000000;fill-opacity:1;fill-rule:nonzero;stroke:none;stroke-linecap:butt;stroke-linejoin:round;stroke-miterlimit:20.1;stroke-dasharray:none;stroke-dashoffset:0;stroke-opacity:1;color-rendering:auto;image-rendering:auto;shape-rendering:auto;text-rendering:auto;enable-background:accumulate;stop-color:#000000;stop-opacity:1"
         d="M 255.68945,0 C 114.47867,0.170818 -3.7599233e-4,114.78911 0,256 -2.7538236e-4,397.33173 114.66827,512.00027 256,512 397.33173,512.00028 512.00028,397.33173 512,256 512.00027,114.66827 397.33173,-2.7538236e-4 256,0 h -0.30469 a 4.522432,4.522432 0 0 0 -0.006,0 z m 0.006,9.0429688 h 0.006 H 256 C 392.444,9.0427029 502.95729,119.556 502.95703,256 502.9573,392.444 392.444,502.9573 256,502.95703 119.556,502.95729 9.0427029,392.444 9.0429688,256 9.0426058,119.67494 119.3711,9.211054 255.69531,9.0429688 Z M 256,38.664062 c -30.10544,-4.1e-5 -54.49541,25.077932 -54.49609,55.759766 -4.6e-4,30.682652 24.38985,55.761762 54.49609,55.761722 30.10624,4e-5 54.49655,-25.07907 54.49609,-55.761722 C 310.49541,63.741994 286.10544,38.664021 256,38.664062 Z m 0,9.042969 c 25.09407,-3.4e-5 45.45254,20.801954 45.45312,46.716797 3.9e-4,25.915542 -20.35836,46.718782 -45.45312,46.718752 -25.09476,3e-5 -45.45351,-20.80321 -45.45312,-46.718752 C 210.54746,68.508985 230.90593,47.706997 256,47.707031 Z m -2.48438,135.621089 c -11.79004,0 -22.44682,1.83547 -30.5625,5.0625 -4.05783,1.61352 -7.50372,3.56294 -10.16406,6.07227 -2.66034,2.50933 -4.61718,5.84503 -4.61718,9.61914 v 248.5 c 0,3.77412 1.95684,7.10981 4.61718,9.61914 2.66034,2.50933 6.10623,4.45875 10.16406,6.07227 8.11568,3.22703 18.77246,5.0625 30.5625,5.0625 11.79006,0 22.44726,-1.83543 30.5625,-5.0625 4.05763,-1.61354 7.50197,-3.5629 10.16211,-6.07227 2.66015,-2.50937 4.61719,-5.84519 4.61719,-9.61914 v -248.5 c 0,-3.77395 -1.95704,-7.10977 -4.61719,-9.61914 -2.66014,-2.50937 -6.10448,-4.45873 -10.16211,-6.07227 -8.11524,-3.22707 -18.77244,-5.0625 -30.5625,-5.0625 z m 0,9.04297 c 10.82502,0 20.57956,1.78294 27.22071,4.42383 3.32057,1.32045 5.83877,2.86879 7.29883,4.2461 1.46005,1.3773 1.77929,2.31846 1.77929,3.04101 v 248.5 c 0,0.72255 -0.31924,1.66372 -1.77929,3.04102 -1.46006,1.3773 -3.97826,2.92565 -7.29883,4.24609 -6.64115,2.64089 -16.39569,4.42383 -27.22071,4.42383 -10.82501,0 -20.57901,-1.7829 -27.2207,-4.42383 -3.32084,-1.32046 -5.84055,-2.86875 -7.30078,-4.24609 -1.46023,-1.37734 -1.7793,-2.31863 -1.7793,-3.04102 v -248.5 c 0,-0.72238 0.31907,-1.66367 1.7793,-3.04101 1.46023,-1.37735 3.97994,-2.92563 7.30078,-4.2461 6.64169,-2.64093 16.39569,-4.42383 27.2207,-4.42383 z"
         id="path28848" />
    </g>
  </g>
</svg>

<?xml version="1.0" encoding="UTF-8" standalone="no"?>
<svg
   xmlns:dc="http://purl.org/dc/elements/1.1/"
   xmlns:cc="http://creativecommons.org/ns#"
   xmlns:rdf="http://www.w3.org/1999/02/22-rdf-syntax-ns#"
   xmlns:svg="http://www.w3.org/2000/svg"
   xmlns="http://www.w3.org/2000/svg"
   xmlns:sodipodi="http://sodipodi.sourceforge.net/DTD/sodipodi-0.dtd"
   xmlns:inkscape="http://www.inkscape.org/namespaces/inkscape"
   width="135.46667mm"
   height="135.46667mm"
   viewBox="0 0 135.46667 135.46667"
   version="1.1"
   id="svg8"
   inkscape:version="1.0.2 (e86c870879, 2021-01-15)"
   sodipodi:docname="system-monitoring-center-info-about-symbolic.svg">
  <defs
     id="defs2" />
  <sodipodi:namedview
     id="base"
     pagecolor="#ffffff"
     bordercolor="#666666"
     borderopacity="1.0"
     inkscape:pageopacity="0.0"
     inkscape:pageshadow="2"
     inkscape:zoom="0.41349098"
     inkscape:cx="213.76295"
     inkscape:cy="305.615"
     inkscape:document-units="mm"
     inkscape:current-layer="layer1"
     inkscape:document-rotation="0"
     showgrid="false"
     inkscape:window-width="1366"
     inkscape:window-height="696"
     inkscape:window-x="0"
     inkscape:window-y="0"
     inkscape:window-maximized="1" />
  <metadata
     id="metadata5">
    <rdf:RDF>
      <cc:Work
         rdf:about="">
        <dc:format>image/svg+xml</dc:format>
        <dc:type
           rdf:resource="http://purl.org/dc/dcmitype/StillImage" />
        <dc:title />
      </cc:Work>
    </rdf:RDF>
  </metadata>
  <g
     inkscape:label="Katman 1"
     inkscape:groupmode="layer"
     id="layer1"
     transform="translate(-37.266664,-80.766664)">
    <path
       id="path28846"
       style="color:#000000;font-style:normal;font-variant:normal;font-weight:normal;font-stretch:normal;font-size:medium;line-height:normal;font-family:sans-serif;font-variant-ligatures:normal;font-variant-position:normal;font-variant-caps:normal;font-variant-numeric:normal;font-variant-alternates:normal;font-variant-east-asian:normal;font-feature-settings:normal;font-variation-settings:normal;text-indent:0;text-align:start;text-decoration:none;text-decoration-line:none;text-decoration-style:solid;text-decoration-color:#000000;letter-spacing:normal;word-spacing:normal;text-transform:none;writing-mode:lr-tb;direction:ltr;text-orientation:mixed;dominant-baseline:auto;baseline-shift:baseline;text-anchor:start;white-space:normal;shape-padding:0;shape-margin:0;inline-size:0;clip-rule:nonzero;display:inline;overflow:visible;visibility:visible;isolation:auto;mix-blend-mode:normal;color-interpolation:sRGB;color-interpolation-filters:linearRGB;solid-color:#000000;solid-opacity:1;vector-effect:none;fill:#bebebe;fill-opacity:1;fill-rule:nonzero;stroke:none;stroke-width:9.04396;stroke-linecap:butt;stroke-linejoin:round;stroke-miterlimit:20.1;stroke-dasharray:none;stroke-dashoffset:0;stroke-opacity:1;color-rendering:auto;image-rendering:auto;shape-rendering:auto;text-rendering:auto;enable-background:accumulate;stop-color:#000000"
       d="M 255.6875 0 C 114.47762 0.17187697 -0.0003741715 114.78976 0 256 C -0.00027590551 397.33173 114.66826 512.00026 256 512 C 397.33173 512.00026 512.00026 397.33173 512 256 C 512.00026 114.66827 397.33173 -0.00027590551 256 0 L 255.69531 0 A 4.5224319 4.5224319 0 0 0 255.68945 0 L 255.6875 0 z M 256 47.707031 C 281.09406 47.706997 301.45256 68.509002 301.45312 94.423828 C 301.45354 120.33941 281.09474 141.14262 256 141.14258 C 230.90523 141.14262 210.54648 120.33941 210.54688 94.423828 C 210.54745 68.509002 230.90592 47.706997 256 47.707031 z M 253.51562 192.37109 C 264.34065 192.37109 274.09517 194.15401 280.73633 196.79492 C 284.05687 198.11538 286.57509 199.66368 288.03516 201.04102 C 289.49519 202.41831 289.81445 203.35946 289.81445 204.08203 L 289.81445 452.58203 C 289.81445 453.3046 289.49507 454.24575 288.03516 455.62305 C 286.57509 457.00034 284.05687 458.54872 280.73633 459.86914 C 274.09517 462.51005 264.34065 464.29297 253.51562 464.29297 C 242.6906 464.29297 232.93661 462.51009 226.29492 459.86914 C 222.97409 458.54869 220.45437 457.00038 218.99414 455.62305 C 217.53391 454.24571 217.21484 453.30445 217.21484 452.58203 L 217.21484 204.08203 C 217.21484 203.35965 217.53391 202.41835 218.99414 201.04102 C 220.45437 199.66364 222.97409 198.11538 226.29492 196.79492 C 232.93661 194.15398 242.6906 192.37109 253.51562 192.37109 z "
       transform="matrix(0.26458333,0,0,0.26458333,37.266664,80.766664)" />
  </g>
</svg>
